X:1
T:Air
T:à deux Claviers 
T:HWV 470
T:Transkription für Flöte (Tenorflöte) und Altquerflöte in G
T:Air a deux claviers
T:Georg Friedrich Händel (1685-1759)
T:Air à deux Claviers 
T:(HWV 470) transposed for Flute Duet 
T:twoflutes 2020 / Felix Scharpf / https://commons.wikimedia.org/wiki/File:Georg_Friedrich_H%C3%A4ndel_(1).jpg
T:twoflutes 2020 / Felix Scharpf / https://commons.wikimedia.org/wiki/File:Georg_Friedrich_H%C3%A4ndel_(1).jpg
T:twoflutes 2020 / Felix Scharpf / https://commons.wikimedia.org/wiki/File:Georg_Friedrich_H%C3%A4ndel_(1).jpg
T:twoflutes 2020 / Felix Scharpf / https://commons.wikimedia.org/wiki/File:Georg_Friedrich_H%C3%A4ndel_(1).jpg
C:G.F. Händel
C:(1685-1759)
Z:twoflutes 2020 / Felix Scharpf / https://commons.wikimedia.org/wiki/File:Georg_Friedrich_H%C3%A4ndel_(1).jpg
%%score [ 1 2 ]
L:1/8
Q:1/2=74
M:4/4
K:C
V:1 treble nm="Flute"
V:2 treble nm="Flute"
V:1
!mf! .c.G (c/d/.e) .d.G (d/e/.f) | .e2 (c'4 Pb2) | (c'g).a.f (ge).f.d | (ec) z2 z4 | %4
 (c'g).a.f (ge).f.d | .e(ga).c .d(fg).B | .c(ef).A (BG) c2 | z (A d2) z (B e2) | z (c f2) z (def) | %9
 (Pd3 c) c2 z2 | z4 z .c'(c'b) | (ba)(ag) (ga)(ag) | (gf)(fe) (eg) (Pg3/2f/4g/4) | (agfe) (agfe) | %14
 (agfe) .d.G (g/a/.b) | .a.d (a/b/.c') .b2 g2- | g2 P^f2 (gd).e.c | (dB).c.A (BG) z2 | %18
 z4 (gd).e.c | (dB).c.A (B/c/.d) (c/d/.e) | (d/e/.^f) ((e/f/.g)) .f(ab).f | .g.b c'2- c'(abc') | %22
 (Pa3 g) .g(GAB | c4) z (ABc | d4) z (def | g4) z (efg | a3) g (fe)d.c' | %27
 .b(e'd'e') .c'.e (a/b/.c') | .b.e (b/c'/.d') .c'.a z2 | z4 (ae).f.d | (ec).d.B c2 a2- | %31
 a.^g (g/a/.b) e2 c'2- | c'.b (b/c'/.d') .^g(e'd'c') | (bd') (Pc'>b) .c'(c'ba) | %34
 (^gb) (Pa>g) .a(e'd'c') | (bd') (Pc'>b) .c'(^gab) | ^g3 .g (a/=g/.f) (g/f/.e) | %37
 f2 z2 (g/f/.e) (f/e/.d) | e2 z2 (c'/b/.a) (b/a/.g) | (a/g/.^f) (ga) (Pf3 e) | .e2 z2 z (ge^c | %41
 A4) z (d'bg | .e)(gec .A)(afd | .B)(bge .c)(c'b).e | (ad).g.c (fB).c.e | %45
 .d g2 ^f (g/=f/.e) (f/e/.d) | .e.G (c/d/.e) .d.G (d/e/.f) | .e2 (c'4 Pb2) | (c'g).a.f (ge).f.d | %49
 (ec) z2 z4 | (c'g).a.f (ge).f.d | (eg) .G(A/_B/) .A.a .A(=B/c/) | .B(d f2) z (g d'2) | %53
 z (g.c')e (ac) f2- | f(def) (Pd3 c) | .c(eg)(_B .A)(c[Q:1/2=65]f)[Q:1/2=60].F | %56
[Q:1/2=55]"_rit." !wedge!=B2[Q:1/2=50] c4 TB2{AB} | !fermata!c8 |] %58
V:2
 z8 |!mf! .c.G (c/d/.e) .d.G (d/e/.f) | e2 z2 z4 | (c'g).a.f (ge).f.d | (ec).f.d (ec).d.B | %5
 .c(ef).A .B(de).G | .A(cd).F (GFEC) | F2 z (D G2) z (E | A2) z (d B2) (cd) | (PB3 c) c.c'(c'b) | %10
 (ba)(ag) (ga)(ag) | (gf)(fe) (ef)(fe) | (ed)(dc) (ce) (Pe3/2d/4e/4) | (.f.e)(.a.g) (.f.e)(.a.g) | %14
 (fedc) B2 z2 | z4 z D (.G/.A/.B) | .A.D (A/B/.c) .B2 z2 | z4 (gd).e.c | (dB).c.A (BG).c.A | %19
 (BG).A.^F (G/A/.B) (A/B/.c) | (B/c/.d) ((c/d/.e)) d2 z (d | e2) z (e ^f2) (ge) | (P^f3 g) B2 z2 | %23
 z (CDE =F4) | z (DEF G4) | z (GAB c4) | z (ABc) (dcB).A | .^G(E^FG) A2 a2- | a2 P^g2 (ae).=f.d | %29
 (ec).d.B (cA) z2 | z4 .A.E A/B/.c | .B.E (B/c/.d) .c.A (c/d/.e) | .d2 z (f e2) z2 | z4 z (edc) | %34
 (Bd) (Pc>B) .c(cBA) | (^GB) (PA>G) .A(Bcd) | .B(ede) ^c2 z c | (d/=c/.B) (c/B/.A) B2 z2 | %38
 (c/B/.A) (B/A/.^G) (A^f)(=Ge) | (^F^d)(e^f) (Pd3 e) | .E(BGE ^C4) | z (afd B4) | z (ecA .F)(fdB | %43
 .G)(gec .A2) !wedge!G2 | !wedge!F2 !wedge!E2 !wedge!D2 !wedge!C2 | (G/A/.B) (A/B/.c) .B(GAB) | %46
 .c2 c'4 Pb2 | .c'.g (c/d/.e) .d.G (d/e/.f) | (ec) z2 z4 | (c'g).a.f (ge).f.d | (ec).f.d (ec).d.B | %51
 (ce) .E(F/G/) .F.f .F(G/A/) | G2 z (d b2) z (f | e2) z (c .f)(A.d)(F | .G)(BcA) (PB3 c) | %55
 .C2 z (E .F)(Ad).D | !wedge!G2 !wedge!E2 D4 | !fermata!C8 |] %58

